X: 80
T: La despourveue
N: Derived from Ock3008-La_despourveue.krn
C: Johannes Ockeghem
%%abc-version 2.0
%%abcx-abcm2ps-target-version 5.9.1 (29 Sep 2008)
%%abc-creator hum2abc beta
%%abcx-conversion-date 2019/02/17 07:26:16
%%abc-edited-by Jesse Rodin
%%abc-edited-by Chris Gage 06-25-2012
%%abcx-initial-encoding-date 2015/10/29/
%%humdrum-veritas 2093974644
%%humdrum-veritas-data 1344374103
%%linebreak <none>
%%barnumbers 0
L: 1/4
M: 3/1
Q: 1/2=120
V: 1 clef=treble
V: 2 clef=treble-8
V: 3 clef=treble-8
K: F
[V:1] z4z4F4 | 
[V:2] z4z4f4 | 
[V:3] z4z4F3D | 
[V:1] G2A4B2G4 | 
[V:2] e2f4d2_e4 | 
[V:3] C2F2z2B,2C4 | 
[V:1] F6_EDB,2F2 | 
[V:2] d8d4 | 
[V:3] D2B,4B3GF2 | 
[V:1] G2F4B4A2 | 
[V:2] _e2d2B4c3A | 
[V:3] _E2B4G2F2c2 | 
[V:1] B4c6A2 | 
[V:2] G4F8 | 
[V:3] d3ef8 | 
[V:1] A4z4G4 | 
[V:2] f8_e4 | 
[V:3] F8G4 | 
[V:1] F3_E/D/C2E2D4 | 
[V:2] d2f2_e2c4=B2 | 
[V:3] D2B,2C4z2G2 | 
[V:1] C4z4A4 | 
[V:2] c8F4 | 
[V:3] A2F2GA2Bc4 | 
[V:1] A4F2B4A2 | 
[V:2] c4d8 | 
[V:3] z2F4G3FD2 | 
[V:1] A6GFG3F/G/ | 
[V:2] c6A2B3A | 
[V:3] z2F4A2G4 | 
[V:1] A6F2G3E | 
[V:2] c4F3DC2c2 | 
[V:3] F4A3Bc2C2 | 
[V:1] D2C4F4E2 | 
[V:2] B2A2F4G4 | 
[V:3] D2F4D2C4 | 
[V:1] F8z4 | 
[V:2] F12 | 
[V:3] z2c4d3c/B/A3/G/ | 
[V:1] D8_E2D2 | 
[V:2] G12- | 
[V:3] B12 | 
[V:1] B,4_E6D2 | 
[V:2] G12 | 
[V:3] z2_E4B4A2 | 
[V:1] D2F4_EDC3B, | 
[V:2] F3DF2G2_E4 | 
[V:3] A6B2G4 | 
[V:1] D3EF6D2 | 
[V:2] D4B,8 | 
[V:3] F6B4AG | 
[V:1] !fermata!C12 | 
[V:2] !fermata!F12 | 
[V:3] !fermata!A12 | 
[V:1] A8A4 | 
[V:2] c8F4 | 
[V:3] F8D4 | 
[V:1] B4A2A4GF | 
[V:2] G4F8 | 
[V:3] z4D8 | 
[V:1] E4z4D4 | 
[V:2] c8z4 | 
[V:3] C8B,4- | 
[V:1] F4B8 | 
[V:2] d8d4 | 
[V:3] B,12 | 
[V:1] A3Bc6BA | 
[V:2] c6A2A2G2 | 
[V:3] F4C2F4G2 | 
[V:1] G3FG4A4- | 
[V:2] c3dB4A4 | 
[V:3] E3DG4z2F2- | 
[V:1] A2GFE4z4 | 
[V:2] c8F4- | 
[V:3] F2EDC4c4- | 
[V:1] A4A4A4 | 
[V:2] F12 | 
[V:3] c2d4c2A4 | 
[V:1] A8A4 | 
[V:2] F8F4 | 
[V:3] D8A4 | 
[V:1] G4F6E2 | 
[V:2] _E4D8 | 
[V:3] B2c2d2B4AB | 
[V:1] E4D2C4F2- | 
[V:2] C2c2B2c2A4 | 
[V:3] c2C2G2A2F4 | 
[V:1] FGAG/A/B2Ac2BAF | 
[V:2] d6c2F4 | 
[V:3] D4G2A4c2- | 
[V:1] G2A3FF4E2 | 
[V:2] E2D2F4G4 | 
[V:3] cBd4c4B2 | 
[V:1] F12 |]  
[V:2] F12 |]  
[V:3] c12 |]  



